material/.icons/material/layers.svg

<svg xmlns="http://www.w3.org/2000/svg" viewBox="0 0 24 24"><path d="M12 16l7.36-5.73L21 9l-9-7-9 7 1.63 1.27M12 18.54l-7.38-5.73L3 14.07l9 7 9-7-1.63-1.27L12 18.54z"/></svg>

<?xml version="1.0" encoding="UTF-8"?><!DOCTYPE svg PUBLIC "-//W3C//DTD SVG 1.1//EN" "http://www.w3.org/Graphics/SVG/1.1/DTD/svg11.dtd"><svg xmlns="http://www.w3.org/2000/svg" xmlns:xlink="http://www.w3.org/1999/xlink" version="1.1" id="mdi-layers" width="24" height="24" viewBox="0 0 24 24"><path d="M12,16L19.36,10.27L21,9L12,2L3,9L4.63,10.27M12,18.54L4.62,12.81L3,14.07L12,21.07L21,14.07L19.37,12.8L12,18.54Z" /></svg>
